!!!OTL: 370. Die Schaeferin.
!!!ODT: 1845
!!!ARE: Europa, Mitteleuropa, Deutschland, Frankfurt a.d. Oder, Seelow
!!!SCT: B0370
!!!TXL: @@DE
!!!YEM: Copyright 1995, estate of Helmut Schaffrath.
**kern	**text
*ICvox	*
*Ivox	*
*clefG2	*
*M3/4	*
*k[b-]	*
*F:	*
=1	=1
!LO:TX:a:t=Tändelnd.	!
{8f	Dort
8g	an
4a	je-
4g	-nem
=2	=2
8fL	Ber-
8aJ	.
2cc}	-ge,
=3	=3
{4dd	wo
4cc	die
4b-	drei
=4	=4
(4a	Hor-
8b-/)	.
8g	-den
4f}	ſtehn,
=5	=5
{4cc	ʒur
4cc	Schäfers
4g	.
=6	=6
8ccL	Frau-
8eeJ	.
2gg}	-en
=7	=7
{4ff	wollt'
4ee	ich
4dd	hin-
=8	=8
2cc	-gehn,
4r}	.
=9||	=9||
{8cc	woll-
8cc	-te
8ddL	mich
8ccJ	.
8b-\L	ver-
8aJ	.
=10	=10
4b-	-bin-
2dd}	-den,
=11	=11
{8b-L	wollt'
8aJ	.
4g	auch
4f	ver-
=12	=12
4.cc	-bun-
8dd	-den
4cc}	ſein:
=13	=13
{4cc	ich
4b-	thät
4a	mich
=14	=14
8gL	fin-
8fJ	.
2ff}	-den
=15	=15
{8aL	bei
8fJ	der
4b-/	Schäf-
4g	-rin
=16	=16
2f	ein.
4r}	.
==	==
!!!AGN: Liebes - Lied, Liebes - Lust
!!!GTL: Liebeslieder - Liebeslust
!!!ONB: ESAC (Essen Associative Code) Database: BOEHME
!!!AMT: simple triple
!!!AIN: vox
!!!EED: Helmut Schaffrath
!!!EEV: 1.0
!!Aus Seelow bei Frankfurt a. d. O. 1845.
!!@@COMMENT:"Kunſtgeſang aus dem 18. Jahrhundert. Wurde mit wenig Varianten noch 1840/45 in der
!!Mark Brandenburg (Seelow, Cüſtrin, Granʒow, Groß-Barnim rc. ) von Mädchen geſungen. Daher
!!in Erk's Nachlaſſe. Ganʒ ähnlich ſchon in "Berliner Monatsſchrift" Okt. 1802 durch Dr. Körte aus
!!Halberſtadt. Daher: Büſching's "Volksliederb. S. 99, und daher wieder Erlach 3, 110."
!!@@END:
!!!URL-scan: https://archive.org/details/BoehmeVtLieder1895/page/n307/mode/2up
!!!ENC: Anna Maria Matuszewska
!!!EEV: 2024/05/07
*-	*-
